svgs/regular/grip-lines-vertical.svg

<svg xmlns="http://www.w3.org/2000/svg" viewBox="0 0 192 512"><!--! Font Awesome Pro 6.4.0 by @fontawesome - https://fontawesome.com License - https://fontawesome.com/license (Commercial License) Copyright 2023 Fonticons, Inc. --><path d="M32 32C18.7 32 8 42.7 8 56V456c0 13.3 10.7 24 24 24s24-10.7 24-24V56c0-13.3-10.7-24-24-24zm128 0c-13.3 0-24 10.7-24 24V456c0 13.3 10.7 24 24 24s24-10.7 24-24V56c0-13.3-10.7-24-24-24z"/></svg>

<svg xmlns="http://www.w3.org/2000/svg" viewBox="0 0 192 512"><!-- Font Awesome Pro 6.0.0-alpha2 by @fontawesome - https://fontawesome.com License - https://fontawesome.com/license (Commercial License) --><path d="M32 32H32C18.8 32 8 42.8 8 56V456C8 469.2 18.8 480 32 480H32C45.2 480 56 469.2 56 456V56C56 42.8 45.2 32 32 32ZM160 32H160C146.8 32 136 42.8 136 56V456C136 469.2 146.8 480 160 480H160C173.2 480 184 469.2 184 456V56C184 42.8 173.2 32 160 32Z"/></svg>
